build/img/404.svg

<svg width="400" height="165" viewBox="0 0 400 165" fill="none" xmlns="http://www.w3.org/2000/svg">
<path d="M86.0295 162.708C84.496 162.708 83.2692 162.25 82.3491 161.333C81.429 160.417 80.969 159.194 80.969 157.667V121.458H5.06056C3.52706 121.458 2.30026 121 1.38015 120.083C0.460051 119.167 0 117.944 0 116.417V112.75C0 110.458 0.843427 108.167 2.53028 105.875L72.458 6.1875C73.2248 4.96528 74.3749 4.04861 75.9084 3.4375C77.4419 2.67361 79.1288 2.29166 80.969 2.29166H90.4C91.9335 2.29166 93.1603 2.75 94.0804 3.66667C95.0005 4.58334 95.4606 5.80556 95.4606 7.33333V107.708H116.393C117.926 107.708 119.153 108.167 120.073 109.083C120.993 110 121.453 111.222 121.453 112.75V116.417C121.453 117.944 120.993 119.167 120.073 120.083C119.153 121 117.926 121.458 116.393 121.458H95.4606V157.667C95.4606 159.194 95.0005 160.417 94.0804 161.333C93.1603 162.25 91.9335 162.708 90.4 162.708H86.0295ZM80.969 107.708V18.5625L18.172 107.708H80.969Z" fill="#354052"/>
<path d="M200.289 165C180.967 165 167.012 159.194 158.425 147.583C149.99 135.972 145.543 120.694 145.083 101.75L144.853 82.7292L145.083 63.25C145.543 44.3056 149.99 29.0278 158.425 17.4167C167.012 5.80556 180.967 0 200.289 0C219.611 0 233.49 5.80556 241.924 17.4167C250.512 29.0278 255.035 44.3056 255.495 63.25C255.649 67.5278 255.725 74.0208 255.725 82.7292C255.725 91.2847 255.649 97.625 255.495 101.75C255.035 120.694 250.512 135.972 241.924 147.583C233.49 159.194 219.611 165 200.289 165ZM200.289 151.25C213.477 151.25 223.445 146.896 230.193 138.188C237.093 129.326 240.697 116.799 241.004 100.604C241.157 96.1736 241.234 90.0625 241.234 82.2708C241.234 74.4792 241.157 68.5208 241.004 64.3958C240.697 48.5069 237.093 36.1319 230.193 27.2708C223.445 18.2569 213.477 13.75 200.289 13.75C187.101 13.75 177.057 18.2569 170.156 27.2708C163.409 36.1319 159.882 48.5069 159.575 64.3958L159.345 82.2708L159.575 100.604C159.882 116.799 163.409 129.326 170.156 138.188C177.057 146.896 187.101 151.25 200.289 151.25Z" fill="#354052"/>
<path d="M364.576 162.708C363.043 162.708 361.816 162.25 360.896 161.333C359.976 160.417 359.516 159.194 359.516 157.667V121.458H283.607C282.074 121.458 280.847 121 279.927 120.083C279.007 119.167 278.547 117.944 278.547 116.417V112.75C278.547 110.458 279.39 108.167 281.077 105.875L351.005 6.1875C351.771 4.96528 352.921 4.04861 354.455 3.4375C355.988 2.67361 357.675 2.29166 359.516 2.29166H368.947C370.48 2.29166 371.707 2.75 372.627 3.66667C373.547 4.58334 374.007 5.80556 374.007 7.33333V107.708H394.939C396.473 107.708 397.7 108.167 398.62 109.083C399.54 110 400 111.222 400 112.75V116.417C400 117.944 399.54 119.167 398.62 120.083C397.7 121 396.473 121.458 394.939 121.458H374.007V157.667C374.007 159.194 373.547 160.417 372.627 161.333C371.707 162.25 370.48 162.708 368.947 162.708H364.576ZM359.516 107.708V18.5625L296.719 107.708H359.516Z" fill="#354052"/>
</svg>

<svg width="400" height="165" fill="none" xmlns="http://www.w3.org/2000/svg"><path d="M86.03 162.708c-1.534 0-2.76-.458-3.68-1.375-.921-.916-1.381-2.139-1.381-3.666v-36.209H5.061c-1.534 0-2.76-.458-3.68-1.375C.46 119.167 0 117.944 0 116.417v-3.667c0-2.292.843-4.583 2.53-6.875L72.458 6.187c.767-1.222 1.917-2.138 3.45-2.75 1.534-.763 3.22-1.145 5.061-1.145H90.4c1.533 0 2.76.458 3.68 1.375.92.916 1.38 2.139 1.38 3.666v100.375h20.933c1.533 0 2.76.459 3.68 1.375.92.917 1.38 2.139 1.38 3.667v3.667c0 1.527-.46 2.75-1.38 3.666-.92.917-2.147 1.375-3.68 1.375H95.461v36.209c0 1.527-.46 2.75-1.38 3.666-.92.917-2.148 1.375-3.681 1.375h-4.37zm-5.061-55V18.563l-62.797 89.145h62.797zM200.289 165c-19.322 0-33.277-5.806-41.864-17.417-8.435-11.611-12.882-26.889-13.342-45.833l-.23-19.02.23-19.48c.46-18.944 4.907-34.222 13.342-45.833C167.012 5.806 180.967 0 200.289 0c19.322 0 33.201 5.806 41.635 17.417 8.588 11.61 13.111 26.889 13.571 45.833.154 4.278.23 10.77.23 19.48 0 8.555-.076 14.895-.23 19.02-.46 18.944-4.983 34.222-13.571 45.833C233.49 159.194 219.611 165 200.289 165zm0-13.75c13.188 0 23.156-4.354 29.904-13.062 6.9-8.862 10.504-21.389 10.811-37.584.153-4.43.23-10.541.23-18.333 0-7.792-.077-13.75-.23-17.875-.307-15.89-3.911-28.264-10.811-37.125-6.748-9.014-16.716-13.521-29.904-13.521-13.188 0-23.232 4.507-30.133 13.52-6.747 8.862-10.274 21.237-10.581 37.126l-.23 17.875.23 18.333c.307 16.195 3.834 28.722 10.581 37.584 6.901 8.708 16.945 13.062 30.133 13.062zm164.287 11.458c-1.533 0-2.76-.458-3.68-1.375-.92-.916-1.38-2.139-1.38-3.666v-36.209h-75.909c-1.533 0-2.76-.458-3.68-1.375-.92-.916-1.38-2.139-1.38-3.666v-3.667c0-2.292.843-4.583 2.53-6.875l69.928-99.688c.766-1.222 1.916-2.138 3.45-2.75 1.533-.763 3.22-1.145 5.061-1.145h9.431c1.533 0 2.76.458 3.68 1.375.92.916 1.38 2.139 1.38 3.666v100.375h20.932c1.534 0 2.761.459 3.681 1.375.92.917 1.38 2.139 1.38 3.667v3.667c0 1.527-.46 2.75-1.38 3.666-.92.917-2.147 1.375-3.681 1.375h-20.932v36.209c0 1.527-.46 2.75-1.38 3.666-.92.917-2.147 1.375-3.68 1.375h-4.371zm-5.06-55V18.563l-62.797 89.145h62.797z" fill="#354052"/></svg>
